images/romb.svg

<svg width="18" height="18" viewBox="0 0 18 18" fill="none" xmlns="http://www.w3.org/2000/svg">
<path d="M8.92767 0.697209L0.513184 9.11169L8.92767 17.5262L17.3422 9.11169L8.92767 0.697209Z" fill="#1B8FA9"/>
<path d="M8.90009 17L1.1001 9.20004L8.90009 1.40002L16.7001 9.20004L8.90009 17ZM1.40009 9.20004L8.90009 16.7L16.4001 9.20004L8.90009 1.70004L1.40009 9.20004Z" fill="white"/>
</svg>

<svg width="18" height="18" fill="none" xmlns="http://www.w3.org/2000/svg"><path d="M8.928.697.513 9.112l8.415 8.414 8.414-8.414L8.928.697Z" fill="#1B8FA9"/><path d="M8.9 17 1.1 9.2l7.8-7.8 7.8 7.8L8.9 17ZM1.4 9.2l7.5 7.5 7.5-7.5-7.5-7.5-7.5 7.5Z" fill="#fff"/></svg>
